src/img/icon-x-close.svg.svg

<svg viewBox="0 0 32 32" xmlns="http://www.w3.org/2000/svg" xmlns:xlink="http://www.w3.org/1999/xlink" width="32.000000" height="32.000000" fill="none">
	<rect id="Icon" width="32.000000" height="32.000000" x="0.000000" y="0.000000" />
	<path id="Vector" d="M22.8353 22.3644L22.3638 22.8358C22.1035 23.0961 21.6814 23.0961 21.421 22.8358L15.9999 17.4146L10.5787 22.8357C10.3184 23.0961 9.89626 23.0961 9.63591 22.8357L9.1645 22.3643C8.90415 22.104 8.90415 21.6819 9.1645 21.4215L14.5857 16.0004L9.1645 10.5792C8.90415 10.3189 8.90415 9.89675 9.1645 9.6364L9.6359 9.165C9.89625 8.90465 10.3184 8.90465 10.5787 9.165L15.9999 14.5862L21.421 9.16499C21.6814 8.90464 22.1035 8.90464 22.3638 9.16499L22.8353 9.63639C23.0956 9.89674 23.0956 10.3189 22.8353 10.5792L17.4141 16.0004L22.8353 21.4215C23.0956 21.6819 23.0956 22.104 22.8353 22.3644Z" fill="rgb(11,5,0)" fill-rule="nonzero" />
</svg>

<svg xmlns="http://www.w3.org/2000/svg" width="32" height="32" fill="none"><path d="M0 0h32v32H0z"/><path fill="#0B0500" d="m22.835 22.364-.471.472a.667.667 0 0 1-.943 0L16 17.415l-5.421 5.42a.667.667 0 0 1-.943 0l-.471-.47a.667.667 0 0 1 0-.943L14.585 16l-5.42-5.42a.667.667 0 0 1 0-.944l.47-.471c.261-.26.683-.26.944 0l5.42 5.421 5.422-5.421c.26-.26.683-.26.943 0l.471.471c.26.26.26.683 0 .943L17.415 16l5.42 5.422c.26.26.26.682 0 .942Z"/></svg>
